X:499
T: "Liebeskummer"
N: Z1179
O: Europa, Mitteleuropa, Deutschland, Lothringen
R: Liebes - Lied
M: 4/4
L: 1/8
K: G
D2 | G2GAB2BB | AGABG2
B2 | BABcd3d | cBcdB2
d2 | Bddddccc | BBdBA3
D | BBccd2gc | B2A2G2

@@@ Tune index: 10257
